logo.svg

<?xml version="1.0" encoding="UTF-8" standalone="no"?>
<svg width="112px" height="112px" viewBox="0 0 112 112" version="1.1" xmlns="http://www.w3.org/2000/svg" xmlns:xlink="http://www.w3.org/1999/xlink" xmlns:sketch="http://www.bohemiancoding.com/sketch/ns">
    <!-- Generator: Sketch 3.3.3 (12072) - http://www.bohemiancoding.com/sketch -->
    <title>JW.devs</title>
    <desc>Created with Sketch.</desc>
    <defs></defs>
    <g id="Page-1" stroke="none" stroke-width="1" fill="none" fill-rule="evenodd" sketch:type="MSPage">
        <g id="Group" sketch:type="MSLayerGroup" transform="translate(-190.000000, 0.000000)">
            <g id="JW.devs" transform="translate(190.000000, 0.000000)" sketch:type="MSShapeGroup">
                <rect id="Rectangle-2" fill="#464646" x="0" y="0" width="112" height="112"></rect>
                <path d="M17.4222222,86.2881185 L17.4222222,89.7874963 L20.9216,89.7874963 L20.9216,86.2881185 L17.4222222,86.2881185 Z M26.1549037,89.7874963 L32.7438222,89.7874963 C37.6618667,89.7874963 42.1070222,86.8555852 42.1070222,78.5327407 C42.1070222,72.0699259 38.386963,68.8227556 32.5546667,68.8227556 L26.1549037,68.8227556 L26.1549037,89.7874963 Z M28.6454519,70.8404148 L32.3655111,70.8404148 C36.4323556,70.8404148 39.5849481,72.7004444 39.5849481,79.1317333 C39.5849481,84.7748741 36.9682963,87.769837 32.8068741,87.769837 L28.6454519,87.769837 L28.6454519,70.8404148 Z M46.3945481,89.7874963 L58.3428741,89.7874963 L58.3428741,87.6437333 L48.8850963,87.6437333 L48.8850963,80.1720889 L56.8296296,80.1720889 L56.8296296,78.0283259 L48.8850963,78.0283259 L48.8850963,70.9665185 L58.1221926,70.9665185 L58.1221926,68.8227556 L46.3945481,68.8227556 L46.3945481,89.7874963 Z M69.6291556,89.7874963 L76.7224889,68.8227556 L74.2004148,68.8227556 L68.3681185,86.8555852 L62.4727704,68.8227556 L59.8561185,68.8227556 L66.9494519,89.7874963 L69.6291556,89.7874963 Z M78.6140444,88.2427259 C79.4652444,88.9362963 82.2710519,90.1658074 85.2975407,90.1658074 C89.7111704,90.1658074 92.3593481,87.9589926 92.3593481,84.0182519 C92.3593481,80.0459852 89.3959111,78.9425778 86.4955259,78.0283259 C83.7842963,77.2086519 81.6405333,76.4835556 81.6405333,73.9930074 C81.6405333,71.3448296 83.9104,70.5882074 85.6758519,70.5882074 C87.6619852,70.5882074 89.4904889,71.5024593 91.129837,72.9211259 L92.5169778,71.2502519 C91.0352593,69.7685333 88.5447111,68.4444444 85.7073778,68.4444444 C81.766637,68.4444444 79.0554074,70.745837 79.0554074,74.2452148 C79.0554074,78.1229037 82.0188444,79.257837 85.0453333,80.0775111 C87.5674074,80.7710815 89.7742222,81.5907556 89.7742222,84.1128296 C89.7742222,87.3284741 87.4728296,87.9905185 85.3605926,87.9905185 C82.8700444,87.9905185 80.6317037,86.8555852 79.6544,86.1935407 L78.6140444,88.2427259 Z" id=".DEVS-Copy" fill="#FFFFFF"></path>
                <path d="M22.1863704,54.3096296 C23.4743704,55.7096296 26.6663704,57.5016296 31.0343704,57.5016296 C37.3623704,57.5016296 40.1063704,54.3656296 40.3303704,48.9896296 C40.4423704,46.9736296 40.4423704,44.7896296 40.4423704,42.7736296 L40.4423704,19.5896296 L36.0183704,19.5896296 L36.0183704,48.0376296 C36.0183704,51.2856296 34.9543704,53.7496296 30.8663704,53.7496296 C28.1783704,53.7496296 26.1623704,52.5176296 24.4263704,51.1736296 L22.1863704,54.3096296 Z M74.9943704,56.8296296 L80.5383704,56.8296296 L88.9943704,19.5896296 L84.5703704,19.5896296 L77.6263704,51.4536296 L77.5703704,51.4536296 L70.4023704,22.6696296 L65.4743704,22.6696296 L58.4183704,51.4536296 L51.2503704,19.5896296 L46.8263704,19.5896296 L55.2823704,56.8296296 L60.8823704,56.8296296 L67.8263704,28.8856296 L67.8823704,28.8856296 L74.9943704,56.8296296 Z" id="JW-Copy" fill="#FFFFFF"></path>
            </g>
        </g>
    </g>
</svg>

<svg width="112" height="112" viewBox="0 0 112 112" xmlns="http://www.w3.org/2000/svg"><title>JW.devs</title><g fill="none" fill-rule="evenodd"><path fill="#464646" d="M0 0h112v112H0z"/><path d="M17.422 86.288v3.5h3.5v-3.5h-3.5zm8.733 3.5h6.589c4.918 0 9.363-2.932 9.363-11.255 0-6.463-3.72-9.71-9.552-9.71h-6.4v20.964zm2.49-18.948h3.72c4.067 0 7.22 1.86 7.22 8.292 0 5.643-2.617 8.638-6.778 8.638h-4.162V70.84zm17.75 18.947h11.948v-2.143h-9.458v-7.472h7.945v-2.144h-7.945v-7.061h9.237v-2.144H46.395v20.964zm23.234 0l7.093-20.964H74.2l-5.832 18.033-5.895-18.033h-2.617l7.093 20.964h2.68zm8.985-1.544c.851.693 3.657 1.923 6.684 1.923 4.413 0 7.061-2.207 7.061-6.148 0-3.972-2.963-5.075-5.863-5.99-2.712-.82-4.855-1.544-4.855-4.035 0-2.648 2.27-3.405 4.035-3.405 1.986 0 3.814.914 5.454 2.333l1.387-1.67c-1.482-1.482-3.972-2.807-6.81-2.807-3.94 0-6.652 2.302-6.652 5.801 0 3.878 2.964 5.013 5.99 5.833 2.522.693 4.73 1.513 4.73 4.035 0 3.215-2.302 3.878-4.414 3.878-2.491 0-4.73-1.135-5.707-1.797l-1.04 2.049zM22.186 54.31c1.288 1.4 4.48 3.192 8.848 3.192 6.328 0 9.072-3.136 9.296-8.512.112-2.016.112-4.2.112-6.216V19.59h-4.424v28.448c0 3.248-1.064 5.712-5.152 5.712-2.688 0-4.704-1.232-6.44-2.576l-2.24 3.136zm52.808 2.52h5.544l8.456-37.24H84.57l-6.944 31.864h-.056L70.402 22.67h-4.928l-7.056 28.784L51.25 19.59h-4.424l8.456 37.24h5.6l6.944-27.944h.056l7.112 27.944z" fill="#FFF"/></g></svg>
